X:1696
L:1/8
Q:1/4=108
M:3/4
K:B
 B,D |"B" F3 G F D | B,4 B,B, |"F#" C3 C B,C |"B" D4 B,D | F3 G FD | B,4"E" B,C | 
"B/F#" D3 E"F#7" DC |"B" B,4 z2 ||"B" F3 G FD | B6 | F3 G FD |"F#" C4 z2 |"B" F3 G FD | 
 BA"E" !fermata!G2"E#dim" B2 |"B/F#" D3 E"F#7" DC |"B" B,4 |]

